src/components/Icon/assets/hourglass-3.svg

<svg width="24" height="24" viewBox="0 0 24 24" fill="none" xmlns="http://www.w3.org/2000/svg">
<g id="hourglass-3">
<path id="Combined Shape" fill-rule="evenodd" clip-rule="evenodd" d="M17.0002 6.5528C17.0002 6.9338 16.8552 7.3068 16.5822 7.6308L13.6882 11.0678C13.2322 11.6088 13.2322 12.3918 13.6872 12.9318L16.5822 16.3688C16.8552 16.6938 17.0002 17.0668 17.0002 17.4478V19.9998H7.00018V17.4478C7.00018 17.0668 7.14518 16.6938 7.41818 16.3688L10.3132 12.9308C10.7672 12.3918 10.7672 11.6088 10.3132 11.0688L7.41818 7.6318C7.14518 7.3068 7.00018 6.9338 7.00018 6.5518V3.9998H17.0002V6.5528ZM19.0002 6.5528V3.9998C19.0002 2.8978 18.1032 1.9998 17.0002 1.9998H7.00018C5.89718 1.9998 5.00018 2.8978 5.00018 3.9998V6.5518C5.00018 7.4098 5.30718 8.2298 5.88818 8.9198L8.48218 11.9998L5.88918 15.0798C5.30718 15.7708 5.00018 16.5888 5.00018 17.4478V19.9998C5.00018 21.1028 5.89718 21.9998 7.00018 21.9998H17.0002C18.1032 21.9998 19.0002 21.1028 19.0002 19.9998V17.4478C19.0002 16.6008 18.6852 15.7598 18.1122 15.0798L15.5182 11.9998L18.1122 8.9188C18.6932 8.2288 19.0002 7.4098 19.0002 6.5528ZM12.0002 13.0352C11.7032 13.0352 11.4242 13.1652 11.2332 13.3932C8.1451 17.0869 8.00668 17.2524 8.00047 17.4228C8.00018 17.4308 8.00018 17.4388 8.00018 17.4472V18.5002V19.0002H8.50018H15.5002H16.0002V18.5002V17.4472C16.0002 17.4388 16.0002 17.4308 15.9999 17.4228C15.9937 17.2524 15.8552 17.0869 12.7662 13.3932C12.5762 13.1662 12.2962 13.0352 12.0002 13.0352ZM9.30678 8.322L9.03578 8H14.9638L14.6928 8.322L12.7648 10.611C12.5748 10.838 12.2958 10.967 11.9998 10.967C11.7038 10.967 11.4258 10.838 11.2348 10.611L9.30678 8.322Z" fill="#242428"/>
</g>
</svg>

<svg xmlns="http://www.w3.org/2000/svg" width="24" height="24" fill="none" viewBox="0 0 24 24">
    <path fill="#65676A" fill-rule="evenodd" d="M17 6.553c0 .38-.145.754-.418 1.078l-2.894 3.437c-.456.54-.456 1.324 0 1.864l2.894 3.437c.273.325.418.698.418 1.079V20H7v-2.552c0-.381.145-.754.418-1.08l2.895-3.437c.454-.54.454-1.322 0-1.862L7.418 7.632C7.145 7.307 7 6.934 7 6.552V4h10v2.553zm2 0V4c0-1.102-.897-2-2-2H7c-1.103 0-2 .898-2 2v2.552c0 .858.307 1.678.888 2.368L8.482 12 5.89 15.08C5.307 15.77 5 16.589 5 17.448V20c0 1.103.897 2 2 2h10c1.103 0 2-.897 2-2v-2.552c0-.847-.315-1.688-.888-2.368L15.518 12l2.594-3.081c.581-.69.888-1.51.888-2.366zm-7 6.482c-.297 0-.576.13-.767.358-3.088 3.694-3.226 3.86-3.233 4.03V19h8v-1.553-.024c-.006-.17-.145-.336-3.234-4.03-.19-.227-.47-.358-.766-.358zM9.307 8.322L9.036 8h5.928l-.271.322-1.928 2.289c-.19.227-.47.356-.765.356-.296 0-.574-.129-.765-.356L9.307 8.322z" clip-rule="evenodd"/>
</svg>
